!!!Genre:	Sher
!!!Mode:	Minor
!!!Listening/dance:	dance
!!!One_Mode:	yes
**kern
*I"P1
*clefG2
*k[b-e-]
*g:
*M2/4
*>A
=1
(16gLL
16ccJJ)
4b-
(16aLL
16gJJ)
=2
(16gLL
16ccJJ)
4b-
16aLL
16gJJ
=3
(16gLL
16cc)
(16cc
16b-JJ)
(16b-LL
16a)
(16a
16gJJ)
=4
(16aLL
8qcc/
16b-JJ)
4g
8g
=5
(8gL
8cc)
8cc'
8cc'J
=6
8ccL
8b-
8dd
8ccJ
=7
4b-
4f
=8
4.b-
8f
=9!|:
*>B
8b-L
8cc
8dd
8ccJ
=10
(16ccLL
16ddJJ
4b-)
16aLL
16gJJ
=11
(16gLL
16cc)
(16cc
16b-JJ)
(16b-LL
16a)
(16a
16gJJ)
=12
16aLL
16b-JJ
4g
24fLL
24en
24fJJ
=13
8b-
(8qdd/
4cc)
16b-LL
16ccJJ
=14
16ddLL
(16b-
16cc)
(16aJJ
16b-LL)
(16g
16a)
(16f#XJJ
=15
[2g)
=16
8g]
8r
8r
8f
=17:|!
(16ddLL
16cc)
(16cc
16b-JJ)
(16b-LL
16a)
(16a
16gJJ)
=18
2g
=19
4G
4r
==
*-
